img/svg/vk.svg

<svg width="56" height="56" viewBox="0 0 56 56" fill="inherit" xmlns="http://www.w3.org/2000/svg">
    <g clip-path="url(#clip0_269_4082)">
        <path
            d="M29.1352 55.9985C28.3192 55.9985 27.5033 55.9985 26.6873 55.9985C26.6553 55.9905 26.6233 55.9745 26.5833 55.9745C25.7193 55.8945 24.8473 55.8465 23.9914 55.7345C22.3434 55.5185 20.7354 55.1266 19.1595 54.5986C14.8156 53.1347 11.0557 50.743 7.87179 47.4313C5.87984 45.3674 4.24789 43.0396 2.96792 40.4719C1.95195 38.4401 1.19997 36.3123 0.703981 34.0965C0.311992 32.3366 0.0799978 30.5608 0.0479987 28.7529C0.0319991 28.513 0.0159996 28.265 0 28.025C0 27.961 0 27.905 0 27.841C0.00799978 27.777 0.0239994 27.713 0.0239994 27.649C0.0399989 27.2251 0.0399989 26.8091 0.0639983 26.3852C0.127997 25.0093 0.311992 23.6414 0.591984 22.2975C1.10397 19.8337 1.93595 17.482 3.07992 15.2422C4.54388 12.3944 6.43183 9.86665 8.75976 7.67485C11.8317 4.77111 15.3836 2.6433 19.4075 1.34742C22.3274 0.395502 25.3193 -0.0444578 28.3832 0.00353781C30.1032 0.0275356 31.8071 0.211519 33.4951 0.547489C35.887 1.02745 38.175 1.80338 40.3669 2.88328C43.2788 4.32315 45.8708 6.21098 48.1347 8.54677C50.2626 10.7386 51.9906 13.2103 53.3026 15.9701C54.7345 18.9778 55.6065 22.1375 55.8945 25.4572C56.0065 26.7211 56.0225 27.993 55.9745 29.2649C55.9185 30.5768 55.7665 31.8807 55.5185 33.1685C55.0145 35.8403 54.1425 38.3921 52.8866 40.7999C50.9266 44.5915 48.2467 47.7752 44.8468 50.351C41.7749 52.6788 38.367 54.2946 34.6231 55.2066C33.1031 55.5745 31.5671 55.8225 30.0072 55.9185C29.7192 55.9425 29.4232 55.9745 29.1352 55.9985ZM21.5034 18.1859C21.7034 18.2659 21.8874 18.3699 22.0874 18.4259C22.9034 18.6499 23.3834 19.2018 23.6154 20.0017C23.8954 20.9856 23.9674 21.9936 23.9594 23.0015C23.9514 23.8894 23.9114 24.7853 23.8154 25.6652C23.7674 26.1612 23.6154 26.6571 23.4554 27.1291C23.2954 27.609 22.8874 27.825 22.4394 27.721C22.2314 27.673 22.0314 27.553 21.8394 27.4411C21.3514 27.1451 21.0394 26.6731 20.7034 26.2172C19.0235 23.9054 17.6795 21.3936 16.5836 18.7618C16.2556 17.9779 15.7916 17.6579 14.9516 17.6579C13.2236 17.6579 11.4877 17.6579 9.75974 17.6579C9.63174 17.6579 9.49574 17.6579 9.36775 17.6899C8.59177 17.8739 8.32778 18.2419 8.64777 18.9938C10.2317 22.6895 12.0637 26.2572 14.1996 29.6569C15.6476 31.9687 17.3115 34.0965 19.3915 35.8723C20.7834 37.0562 22.3354 37.9281 24.0954 38.4321C25.0873 38.712 26.0953 38.88 27.1193 38.976C28.0312 39.056 28.9512 39.12 29.8712 39.048C30.6152 38.984 31.0552 38.6081 31.1992 37.8801C31.2392 37.6721 31.2472 37.4482 31.2632 37.2322C31.3032 36.8082 31.3192 36.3843 31.3752 35.9603C31.4552 35.3763 31.6551 34.8324 32.0071 34.3524C32.4711 33.7205 33.1351 33.6165 33.7671 34.0725C33.9831 34.2324 34.2071 34.3924 34.3991 34.5844C35.335 35.5283 36.279 36.4642 37.183 37.4402C38.015 38.3441 38.9989 38.896 40.2149 39.056C41.2469 39.192 42.2789 39.104 43.3108 39.12C44.1908 39.128 45.0628 39.136 45.9428 39.152C46.6067 39.16 47.2067 38.848 47.4307 38.1601C47.5827 37.6961 47.4867 37.2642 47.2787 36.8322C46.9827 36.2163 46.5587 35.6963 46.1028 35.2004C45.0068 34.0085 43.9108 32.8246 42.8068 31.6407C42.4389 31.2487 42.0309 30.8887 41.6549 30.4888C41.0869 29.8888 41.0069 29.3129 41.3669 28.577C41.4709 28.369 41.5909 28.161 41.7269 27.977C43.0308 26.1612 44.3428 24.3453 45.6388 22.5215C46.1428 21.8096 46.6867 21.1216 47.0387 20.3137C47.2707 19.7778 47.5587 19.2738 47.5827 18.6659C47.5907 18.4339 47.5507 18.2259 47.3427 18.1219C46.8947 17.9059 46.4307 17.7059 45.9268 17.6819C45.1748 17.6499 44.4148 17.6419 43.6548 17.6419C42.3669 17.6419 41.0709 17.6579 39.7829 17.6499C39.1349 17.6499 38.679 17.9219 38.407 18.5059C38.255 18.8258 38.111 19.1538 37.967 19.4738C36.943 21.7376 35.879 23.9774 34.3831 25.9772C33.9751 26.5211 33.5591 27.0411 33.0311 27.4651C32.6311 27.785 32.2071 27.753 31.8311 27.4011C31.4232 27.0171 31.2472 26.5451 31.2472 25.9932C31.2472 23.7214 31.2472 21.4496 31.2552 19.1778C31.2552 18.9778 31.2552 18.7778 31.2472 18.5779C31.1992 17.562 30.5752 16.954 29.5592 16.938C28.4792 16.922 27.3993 16.914 26.3193 16.898C25.7433 16.89 25.1673 16.874 24.5913 16.874C24.0793 16.882 23.5594 16.874 23.0474 16.938C22.3034 17.066 21.8154 17.506 21.5034 18.1859Z"
            fill="inherit" />
    </g>
    <defs>
        <clipPath id="clip0_269_4082">
            <rect width="56" height="55.9985" fill="inherit" />
        </clipPath>
    </defs>
</svg>

<svg width="56" height="56" viewBox="0 0 56 56" fill="inherit" xmlns="http://www.w3.org/2000/svg"><g clip-path="url(#clip0_269_4082)"><path d="M29.135 55.998h-2.448c-.032-.008-.064-.023-.104-.023-.864-.08-1.736-.129-2.592-.24a25.706 25.706 0 01-4.831-1.136c-4.344-1.464-8.104-3.856-11.288-7.168a27.864 27.864 0 01-4.904-6.96 27.764 27.764 0 01-2.264-6.374 26.672 26.672 0 01-.656-5.344L0 28.025v-.184c.008-.064.024-.128.024-.192.016-.424.016-.84.04-1.264a25.98 25.98 0 01.528-4.088 27.949 27.949 0 012.488-7.055 27.713 27.713 0 015.68-7.567c3.072-2.904 6.624-5.032 10.647-6.328A27.368 27.368 0 0128.383.004c1.72.024 3.424.208 5.112.543 2.392.48 4.68 1.256 6.872 2.336a28.067 28.067 0 017.768 5.664 27.619 27.619 0 015.168 7.423 27.414 27.414 0 012.592 9.487 30.61 30.61 0 01.08 3.808 26.644 26.644 0 01-.456 3.904 27.408 27.408 0 01-2.632 7.63 27.922 27.922 0 01-8.04 9.552 27.54 27.54 0 01-10.224 4.856 26.51 26.51 0 01-4.616.712c-.288.024-.584.056-.872.08zm-7.632-37.812c.2.08.384.184.584.24.816.224 1.296.776 1.528 1.576.28.984.352 1.992.344 3a26.879 26.879 0 01-.144 2.663c-.048.496-.2.992-.36 1.464-.16.48-.568.696-1.016.592-.208-.048-.408-.168-.6-.28-.488-.296-.8-.768-1.136-1.224-1.68-2.312-3.023-4.823-4.12-7.455-.327-.784-.791-1.104-1.631-1.104H9.76c-.128 0-.264 0-.392.032-.776.184-1.04.552-.72 1.304 1.584 3.695 3.416 7.263 5.552 10.663 1.448 2.312 3.111 4.44 5.192 6.215 1.391 1.184 2.943 2.056 4.703 2.56.992.28 2 .448 3.024.544.912.08 1.832.144 2.752.072.744-.064 1.184-.44 1.328-1.168.04-.208.048-.432.064-.648.04-.424.056-.848.112-1.272.08-.584.28-1.128.632-1.608.464-.631 1.128-.735 1.76-.28.216.16.44.32.632.512.936.944 1.88 1.88 2.784 2.856.832.904 1.816 1.456 3.032 1.616 1.032.136 2.064.048 3.096.064.88.008 1.752.016 2.632.032.664.008 1.264-.304 1.488-.992.152-.464.056-.896-.152-1.328-.296-.616-.72-1.136-1.176-1.632a693.924 693.924 0 00-3.296-3.56c-.368-.391-.776-.751-1.152-1.151-.568-.6-.648-1.176-.288-1.912a4.11 4.11 0 01.36-.6c1.304-1.816 2.616-3.632 3.912-5.456.504-.711 1.048-1.4 1.4-2.207.232-.536.52-1.04.544-1.648.008-.232-.032-.44-.24-.544-.448-.216-.912-.416-1.416-.44a53.566 53.566 0 00-2.272-.04c-1.288 0-2.584.016-3.872.008-.648 0-1.104.272-1.376.856-.152.32-.296.648-.44.968-1.024 2.264-2.088 4.503-3.584 6.503-.408.544-.824 1.064-1.352 1.488-.4.32-.824.288-1.2-.064-.408-.384-.584-.856-.584-1.408 0-2.272 0-4.543.008-6.815 0-.2 0-.4-.008-.6-.048-1.016-.672-1.624-1.688-1.64-1.08-.016-2.16-.024-3.24-.04-.576-.008-1.152-.024-1.728-.024-.512.008-1.032 0-1.544.064-.744.128-1.232.568-1.544 1.248z"/></g><defs><clipPath id="clip0_269_4082"><path d="M0 0h56v55.998H0z"/></clipPath></defs></svg>
